X:1
T:Why Do I Love Jesus?
T:Why Do I Love Jesus?
T:Charles Hutchinson Gabriel
T:Addie J. Bacon, 1901
T:Public Domain Courtesy of the Cyber Hymnal™
T:Public Domain Courtesy of the Cyber Hymnal™
C:Charles Hutchinson Gabriel
Z:Public Domain
Z:Courtesy of the Cyber Hymnal™
%%score ( 1 2 ) ( 3 4 )
L:1/8
Q:1/4=105
M:6/8
K:G
V:1 treble 
V:2 treble 
V:3 bass 
V:4 bass 
V:1
 [B,D]2 [B,D] [CE]2 [CF] | [B,G] [DB]4 [DB] | [Ec]2 [CE] [EG]2 [EA] | [DB]3- [DB]2 [B,D] | %4
w: 1.~Why do I love|Je- sus? Be-|cause He first loved|me, * And|
w: 2.~Why do I love|Je- sus? When|clouds are ga- thering|fast, * When|
w: 3.~Why do I love|Je- sus? Be-|cause ’tis sweet to|know * He|
 [CE]2 [DF] [EG]2 [CE] | [B,D] [B,G]4 [DB] | [^CA]2 [CE] [CE]2 [CB] | %7
w: gave Him- self a|ran- som from|sin to set me|
w: waves are break- ing|o’er me, and|storms are sweep- ing|
w: guides and keeps me|ev- er thro’|all my paths be-|
 ([FA][EG][DF] [EG]) ([DF][CE]) | [B,D]2 [B,D] [CE]2 [CF] | [B,G] [DB]4 [DB] | %10
w: free. * * * When *|all is bright a-|bout me with|
w: past, * * * I *|stretch my hand to|Je- sus, and|
w: low; * * * And *|that some day— O|rap- ture! I’ll|
 [Ec]2 [CE] [EG]2 [EA] | [DB]3- [DB]2 [DB] | [Dd]2 [Dd] [Dc]2 [DB] | [EA]2 [Ec] [EB]2 [EA] | %14
w: hope and love and|cheer, * I|feel and see the|ha- lo of my|
w: lean up- on His|might, * And|He so gent- ly,|safe- ly leads me|
w: join the choir a-|bove, * And|sing with jo- y|for- ev- er the|
 [DG]2 [DG] [DF]2 [DF] | [DG]3- [DG]2 z ||"^Refrain" [Gd]2 [Gd] (d2 c) | [GB]2 [DA] G3 | %18
w: Sav- ior’s pre- sence|near. *|||
w: out in- to the|light. *|This is why, *|this is why!|
w: sto- ry of His|love. *|||
 [Ec]2 [Ec] [Ec]2 [EG] | [DB]2 [DB] [DB]3 | [FA]2 [GB] [Ac]2 [Fe] | [Gd]2 [Gc] [GB] [Gd]2 | %22
w: ||||
w: Oh, it is so|sweet to know|That He guides and|keeps me ev- er,|
w: ||||
 [Gd]2 [Gc] [GB]2 [DA] | [DG]3- [DG]2 z |] %24
w: ||
w: For I love Him|so. *|
w: ||
V:2
 x6 | x6 | x6 | x6 | x6 | x6 | x6 | C3 x3 | x6 | x6 | x6 | x6 | x6 | x6 | x6 | x6 || x3 E3 | %17
 x3 (D2 =F) | x6 | x6 | x6 | x6 | x6 | x6 |] %24
V:3
 [G,,G,]2 [G,,G,] [G,,G,]2 [G,,G,] | [G,,G,] [G,,G,]4 [G,,G,] | [C,G,]2 [C,G,] [C,G,]2 [C,G,] | %3
 [G,,G,]3- [G,,G,]2 [G,,G,] | [C,G,]2 [C,G,] [C,G,]2 [C,G,] | [G,,G,] [G,,G,]4 [G,,G,] | %6
 [A,,G,]2 [A,,G,] [A,,G,]2 [A,,G,] | [D,F,]3- [D,F,]2 [D,F,] | [G,,G,]2 [G,,G,] [G,,G,]2 [G,,G,] | %9
 [G,,G,] [G,,G,]4 [G,,G,] | [C,G,]2 [C,G,] [C,G,]2 [C,G,] | [G,,G,]3- [G,,G,]2 G, | %12
 [G,B,]2 [G,B,] [F,A,]2 G, | [C,G,]2 [C,G,] [C,G,]2 [C,C] | [D,B,]2 [D,B,] [D,A,]2 [D,C] | %15
 [G,,B,]3- [G,,B,]2 z || [G,B,]2 [G,B,] (A,2 E) | [G,D]2 [G,C] [G,B,]3 | %18
 [C,G,]2 [C,G,] [C,G,]2 [C,G,] | G,2 G, G,3 | [D,D]2 [D,D] [D,D]2 [D,C] | %21
 [G,B,]2 [G,E] [G,D] [G,B,]2 | [B,,D]2 [C,E] [D,D]2 [D,C] | [G,,B,]3- [G,,B,]2 z |] %24
V:4
 x6 | x6 | x6 | x6 | x6 | x6 | x6 | x6 | x6 | x6 | x6 | x5 G, | x5 G, | x6 | x6 | x6 || x3 D,3 | %17
 x6 | x6 | G,2 G, G,3 | x6 | x6 | x6 | x6 |] %24

